src/icons/chevron-left.svg

<?xml version="1.0" encoding="UTF-8"?>
<svg width="512px" height="512px" viewBox="0 0 512 512" version="1.1" xmlns="http://www.w3.org/2000/svg" xmlns:xlink="http://www.w3.org/1999/xlink">
    <!-- Generator: Sketch 62 (91390) - https://sketch.com -->
    <title>chevron-left</title>
    <desc>Created with Sketch.</desc>
    <g id="chevron-left" stroke="none" stroke-width="1" fill="none" fill-rule="evenodd">
        <path d="M225.8,249.462522 L345.3,125.062522 C348.3,121.962522 348.2,116.862522 345.1,113.762522 L323.7,91.8625219 C320.6,88.7625219 315.6,88.6625219 312.6,91.6625219 L166.7,243.662522 C165.1,245.262522 164.4,247.362522 164.5,249.462522 C164.4,251.662522 165.1,253.662522 166.7,255.262522 L312.6,407.262522 C315.6,410.362522 320.6,410.262522 323.7,407.062522 L345.1,385.162522 C348.2,382.062522 348.2,376.962522 345.3,373.862522 L225.8,249.462522 Z" id="Path" fill="#000000" fill-rule="nonzero"></path>
    </g>
</svg>

<svg xmlns="http://www.w3.org/2000/svg" width="512" height="512" viewBox="0 0 512 512">
    <path d="M225.8 249.463l119.5-124.4c3-3.1 2.9-8.2-.2-11.3l-21.4-21.9c-3.1-3.1-8.1-3.2-11.1-.2l-145.9 152c-1.6 1.6-2.3 3.7-2.2 5.8-.1 2.2.6 4.2 2.2 5.8l145.9 152c3 3.1 8 3 11.1-.2l21.4-21.9c3.1-3.1 3.1-8.2.2-11.3l-119.5-124.4z"/>
</svg>
